X: 31832
T: Paudeen O'Rafferty
R: jig
M: 6/8
K: Dmixolydian
|:DBA A2 D|GBA AGE|DBA A2 E|GBA GED:|
|:~B3 dBd|efg gfe|~d3 BAG|ABA GED:|

